bundles/org.openhab.ui.habpanel/web/assets/icons/smarthome-set/door-handle.svg

<?xml version="1.0" encoding="UTF-8" standalone="no"?>
<svg width="32px" height="32px" viewBox="0 0 32 32" version="1.1" xmlns="http://www.w3.org/2000/svg" xmlns:xlink="http://www.w3.org/1999/xlink" xmlns:sketch="http://www.bohemiancoding.com/sketch/ns">
    <!-- Generator: Sketch 3.3.2 (12043) - http://www.bohemiancoding.com/sketch -->
    <title>door handle</title>
    <desc>Created with Sketch.</desc>
    <defs></defs>
    <g id="flatten" stroke="none" stroke-width="1" fill="none" fill-rule="evenodd" sketch:type="MSPage">
        <g id="z-copy" sketch:type="MSArtboardGroup" transform="translate(-4.000000, -100.000000)" fill="#000000">
            <g id="door-handle" sketch:type="MSLayerGroup" transform="translate(4.000000, 100.000000)">
                <path d="M26,9 L26,3.99743399 C26,1.79829425 24.2094838,0 22.00077,0 L9.99922997,0 C7.79246765,0 6,1.79276724 6,4.0042577 L6,27.9957423 C6,30.2109725 7.79051625,32 9.99922997,32 L22.00077,32 C24.2075324,32 26,30.2102927 26,28.0025769 L26,15 L28.9998938,15 C30.6607625,15 32,13.6583224 32,12 C32,10.3374956 30.6588665,9 28.9998938,9 L26,9 Z M24,15 L24,28.0025769 C24,29.1046964 23.1039899,30 22.00077,30 L9.99922997,30 C8.89406861,30 8,29.1053849 8,27.9957423 L8,4.0042577 C8,2.8975999 8.89677503,2 9.99922997,2 L22.00077,2 C23.1014907,2 24,2.89943766 24,3.99743399 L24,9 L21.1973068,9 C20.1598786,7.20659589 18.2208471,6 16,6 C12.6862915,6 10,8.6862915 10,12 C10,15.3137085 12.6862915,18 16,18 C18.2208471,18 20.1598786,16.7934041 21.1973068,15 L24,15 L24,15 Z M20.0015871,15 C19.0787784,16.2291976 17.6129445,17 16,17 C13.2385763,17 11,14.7614237 11,12 C11,9.23857625 13.2385763,7 16,7 C17.6132937,7 19.0789905,7.77112943 20.0015967,9 L16.0001062,9 C14.3392375,9 13,10.3416776 13,12 C13,13.6625044 14.3411335,15 16.0001062,15 L20.0015871,15 L20.0015871,15 Z M16,26 C14.3431458,26 13,24.6568542 13,23 C13,21.3431458 14.3431458,20 16,20 C17.6568542,20 19,21.3431458 19,23 C19,24.6568542 17.6568542,26 16,26 Z M16,25 C17.1045695,25 18,24.1045695 18,23 C18,21.8954305 17.1045695,21 16,21 C14.8954305,21 14,21.8954305 14,23 C14,24.1045695 14.8954305,25 16,25 Z M15,12 C15,11.445433 15.4446229,11 16.0001062,11 L28.9998938,11 C29.5555113,11 30,11.443283 30,12 C30,12.554567 29.5553771,13 28.9998938,13 L16.0001062,13 C15.4444887,13 15,12.556717 15,12 Z" sketch:type="MSShapeGroup"></path>
            </g>
        </g>
    </g>
</svg>

<svg width="32" height="32" xmlns="http://www.w3.org/2000/svg"><path d="M26 9V3.997C26 1.798 24.21 0 22 0H10C7.791 0 6 1.793 6 4.004v23.992A4 4 0 0 0 10 32h12a4 4 0 0 0 4-3.997V15h3c1.66 0 3-1.342 3-3 0-1.663-1.341-3-3-3h-3Zm-2 6v13.003A2 2 0 0 1 22 30H10a2 2 0 0 1-2-2.004V4.004C8 2.898 8.897 2 10 2h12c1.101 0 2 .9 2 1.997V9h-2.803a6 6 0 1 0 0 6H24Zm-3.998 0a5.001 5.001 0 1 1 0-6H16c-1.66 0-3 1.342-3 3 0 1.663 1.341 3 3 3h4.002ZM16 26a3 3 0 1 1 0-6 3 3 0 0 1 0 6Zm0-1a2 2 0 1 0 0-4 2 2 0 0 0 0 4Zm-1-13c0-.555.445-1 1-1h13c.556 0 1 .443 1 1 0 .555-.445 1-1 1H16c-.556 0-1-.443-1-1Z" fill="#000" fill-rule="evenodd"/></svg>
